aliba_games/img/sprite/twitter.svg

<svg width="20" height="16" viewBox="0 0 20 16" fill="none" xmlns="http://www.w3.org/2000/svg">
<path d="M19.5652 2.02528C18.8478 2.33785 18.1065 2.55423 17.3174 2.65041C18.1304 2.16954 18.7521 1.40016 19.0391 0.46247C18.2739 0.919292 17.4369 1.23185 16.5521 1.4242C15.8348 0.654816 14.8065 0.17395 13.6826 0.17395C11.5065 0.17395 9.76084 1.95315 9.76084 4.11705C9.76084 4.42961 9.78475 4.71813 9.85649 5.00665C6.60432 4.86239 3.73475 3.27553 1.7978 0.895249C0.410841 3.39575 1.96519 5.46347 2.99345 6.16073C2.37171 6.16073 1.74997 5.96838 1.22388 5.67986C1.22388 7.62737 2.58693 9.23827 4.35649 9.59892C3.97388 9.71913 3.11301 9.79126 2.58693 9.67105C3.0891 11.2339 4.5478 12.3879 6.24562 12.412C4.90649 13.4699 2.94562 14.3114 0.434753 14.0469C2.18041 15.177 4.23693 15.8261 6.46084 15.8261C13.6826 15.8261 17.6043 9.8153 17.6043 4.62196C17.6043 4.45365 17.6043 4.28535 17.5804 4.11705C18.3934 3.51597 19.063 2.81871 19.5652 2.02528Z" fill="white"/>
</svg>

<svg width="20" height="16" fill="none" xmlns="http://www.w3.org/2000/svg"><path d="M19.565 2.025a8.012 8.012 0 0 1-2.248.625A3.843 3.843 0 0 0 19.04.462a8.232 8.232 0 0 1-2.487.962 3.925 3.925 0 0 0-2.87-1.25c-2.175 0-3.921 1.78-3.921 3.943 0 .313.024.601.095.89C6.604 4.862 3.735 3.276 1.798.895c-1.387 2.5.167 4.568 1.195 5.266-.621 0-1.243-.193-1.77-.481 0 1.947 1.364 3.558 3.133 3.919-.382.12-1.243.192-1.77.072.503 1.563 1.962 2.717 3.66 2.741-1.34 1.058-3.3 1.9-5.811 1.635a11.019 11.019 0 0 0 6.026 1.78c7.222 0 11.143-6.012 11.143-11.205 0-.168 0-.337-.024-.505.813-.601 1.483-1.298 1.985-2.092z" fill="#fff"/></svg>
